X:1
T:Hut in the Bog
R: Reel
M:4/4
K:Bb
G3 AG F D2 | GF GA Bc A B | G3 AG F D2 | fd cA Bc A B | 
G2 AG{A} GF D2 | GF GA Bc AB | G3 AG F D2 | fd cA B2 (3ABc || 
d3 f{f} dc Bc | df dB cd cB | d3 f{f} dc Bc |] 


